X:1     %Music
T:The Minstrel Boy
B:Singing Together, Summer 1951, BBC Publications
F:http://www.folkinfo.org/songs
M:4/4     %Meter
L:1/8     %
K:E
B,2 |E3 F AG FE |G2 B2 e2
w:The min-strel boy_ to the war is gone; 
w:His fa-ther's sword_ he has gird-ed on,
 de |c2 B2 G3/2A/ BG |F4 E2 :|
w:In the ranks of death_ you'll_ find him._
w: And his wild harp slung_ be--hind him
 B2 |e2 d2 c2 de |d2 c2 B3 
w:*  'Land of song', said the war-rior bard, 
^B |c3 G G2 ^B2 |c3 d e2 e2 |E3 F AG FE |G2 B2 e2 
w:'Though all the world be-tray_ thee, One sword at least_ thy_ rights shall guard, 
de |c2 B2 G3/2A/ BG |F4 E2  |]
w:One_ faith-ful harp_ shall_ praise thee.' 